X:116
T:Darrakest Hour
C:Ralph Stanley - Ricky Skaggs solo
N:Transcribed by Mike Stangeland
R:bluegrass
L:1/8
Q:1/4=89
M:3/4
K:C
z3D GB | (3"G"ddd (3ddd (3edA | (3[dA][dB][dB] (3[dB][dB][dB] (3BAG | (3"C"E[cG][cG] (3[cG][cG][cG] (3[cG][cG][cG] | 
[c3G3]A GE | "G"(3[GD][GD][GD] [GD]E GA | "D"(3[dB][dB][dB] (3[dB][dB][dB] (3[dA][dA][dA] | 
"G"(3[dG][dG][dG] (3[dG][dG][dG] (3[dG][dG][dG] | [d6G6] | z6 | z6 | z6 | z6 | 
z6 | z6 | z6 | z6 | "."z6 | z6 | 


